X:1
T:The Soul’s Lament
T:The Soul’s Lament
T:Horace Neely Lincoln
T:Lou S. Bedford, 1892
T:Public Domain Courtesy of the Cyber Hymnal™
T:Public Domain Courtesy of the Cyber Hymnal™
C:Horace Neely Lincoln
Z:Public Domain
Z:Courtesy of the Cyber Hymnal™
%%score ( 1 2 ) ( 3 4 )
L:1/8
Q:1/4=88
M:6/8
K:F
V:1 treble 
V:2 treble 
V:3 bass 
V:4 bass 
V:1
 C | [FA][FA][FA] [FA][F^G][FA] | ([CF]3 [CF])[CF][FA] | [Ac][Ac][Ac] ([Ac][^G=B])[Ac] | %4
w: 1.~The|sum- mer is end- ed, O|God! * And the|har- vest for- ev- * er|
w: 2.~The|dews of God’s grace have come|down; * Thro’ the|spring and the sum- * mer|
w: 3.~Full|oft- en His still gen- tle|voice * Has en-|cour- aged my way- * ward|
 [FA]3- [FA]2 [Fc] | [Fc][Fc][Fc] ([Fc][FB])[Fc] | [Fc][Fc][Fc] [Fc]2 [FA] | %7
w: past, * While|heed- less life’s ear- * nest|path I have trod, And|
w: eves * The|beau- ti- ful rays * of|au- tumn’s bright sun Have|
w: heart * To|choose, in the place * of|life’s fleet- ing joys, Like|
 [EB][EB][EB] (BA)[EG] | c3 [FA]2 C/C/ | CCC C[CF][EG] | [FA][FA][FA] [FA]2 [FA]/[FB]/ | %11
w: now I’m un- done * at|last; With the best|of in- ten- tions my path|I have paved, But the har-|
w: rip- ened full ma- * ny|sheaves; All the while|with vain dream- ings my way|I have paved Till the sum-|
w: Ma- ry, “that bet- * ter|part,” But a- las!|ev- ery warn- ing my proud|heart has braved, Ti- ll sum-|
 [Fc][Fc][Fd] [Fc]F[FB] | [FA][FA][EG] F3 ||"^Refrain" [DB]3- [DB][DF][_DG] | [CA]6 | %15
w: vest is end- ed, my soul|is not saved. *|||
w: mer is en- ded and I|am not saved. I|am * not saved;|I|
w: mer is end- ed and I|am not saved. *|||
 [Ec]4 [EG][FA] | [EG]3- [EG]2 [Ec] | [Fc]4 [FA][Fc] | [Fd]4 [FB][Fd] | [Fc]3 [FA]2 [EG] | %20
w: |||||
w: am not saved;|The * har-|vest is end-|ed, and I|am not saved.|
w: |||||
 F3- F2 |] %21
w: |
w: |
w: |
V:2
 C | x6 | x6 | x6 | x6 | x6 | x6 | x3 E2 x | (EFG x C/)C/ x | CCC C x2 | x6 | x4 F x | x3 F3 || %13
 x6 | x6 | x6 | x6 | x6 | x6 | x6 | F3- F2 |] %21
V:3
 [C,C] | [F,C][F,C][F,C] [F,C][F,=B,][F,C] | ([F,A,]3 [F,A,])[F,A,]F, | F,F,F, F,2 F, | %4
 F,3- F,2 [F,A,] | [B,,B,][B,,B,][B,,B,] B,2 [B,,B,] | [F,A,][F,A,][F,A,] [F,A,]2 [F,C] | %7
 [G,C][G,C][G,C] [C,C]2 [C,C] | C3- [F,C]2 [F,A,]/[F,A,]/ | [F,A,][F,A,][F,A,] [F,A,][F,A,][F,B,] | %10
 [F,C][F,C][F,C] [F,C]2 F,/[F,G,]/ | [F,A,][F,A,][F,B,] [F,A,][F,A,][D,B,] | %12
 [C,C][C,C][C,B,] [F,A,]3 || [B,,F,][B,,F,][B,,F,] [B,,F,]3 | F,F,F, F,3 | %15
 [C,G,][C,G,][C,G,] [C,C]3 | [C,C][C,C][C,C] [C,C]2 [C,B,] | [F,A,][F,A,][F,A,] [F,A,][F,C][F,A,] | %18
 [B,,B,][B,,B,][B,,B,] [B,,B,][B,,D][B,,B,] | [C,A,]3 [C,C]2 [C,B,] | [F,A,]3- [F,A,]2 |] %21
V:4
 x | x6 | x5 F, | F,F,F, F,2 F, | F,3- F,2 x | x3 (B,,D,) x | x6 | x6 | C,D,E, x3 | x6 | %10
 x5 F,/ x/ | x6 | x6 || x6 | F,F,F, F,3 | x6 | x6 | x6 | x6 | x6 | x5 |] %21

